X:1
T:Title
%%score { ( 1 3 ) | ( 2 4 ) }
L:1/8
M:4/4
K:C
V:1 treble nm="Grand Piano"
V:3 treble 
V:2 bass 
V:4 bass 
V:1
 z4 z2[Q:1/4=100] [CE][DF] | [EG]2 [Ec]2 [GB]2 [FA]2 | [EG]E z D E2 EF | G2 AG GF [G,CE]2 | %4
[M:3/4] [G,B,D]6 |[M:1/4] [G,B,D][CE] |[M:4/4] z4 z2 .[DB]2 | [CEG]2 [Ec]2 [Ec]2 z c | %8
 [GB]AGF E2[K:bass] .[G,B,D]2 |[M:3/4] [E,C]6 |[M:1/4][K:treble] G z |[M:4/4] B6 z2 | %12
 [Cc]-[CAc][Cc]-[CFc] [Ec]2 [EG]2 | [FA] [FA]3 [^Fd]2 [Fc]2 |[M:3/4] [GB]4- [GB]A |[M:1/4] [EG]F | %16
[M:4/4] E2 [EG]2 [Ec]2 e-[_Be] | ed[Ac]B A3 A |[M:9/8] GBd e f2- f B2 |[M:3/4] [Ec]6 |] %20
V:2
 z4 z2 [C,G,]2 | [C,C]2 [C,G,]2 [C,G,]2 [C,C]2 | C[G,C]E,F, [C,G,C]2 [G,C]-[D,G,C] | %3
 z2 .F,2 [G,C]2 z2 |[M:3/4] G,,6 |[M:1/4] F,E, |[M:4/4] D,2 D,2 D,2 z B, | %7
 C,2 [C,G,]2 [C,G,]2 [E,C]2 | z[K:treble] FED [G,C]G,[K:bass] z F, |[M:3/4] C,6 | %10
[M:1/4] z[K:treble] c |[M:4/4][K:bass] [G,,G,]2 [B,,G,]2 [D,G,]2 [G,D][F,B,] | %12
 E,F,E,D, [C,G,]2 [C,C]2 | [F,C] [F,C]3 [D,C]2 [D,D]2 |[M:3/4] z2 z2 z[K:treble] F |[M:1/4] z D | %16
[M:4/4][K:bass] [C,G,C]2 [C,C]2 [C,G,]2 [C,C]2 | [F,C]2 z[K:treble] G [F,CF]3 [F,CF] | %18
[M:9/8] [G,B,D]2 [G,G]- [G,CG] [G,DG]2- [G,DG] [G,DF]2 |[M:3/4][K:bass] [C,C]6 |] %20
V:3
 x8 | x8 | z2 C2 z4 | x8 |[M:3/4] x6 |[M:1/4] x2 |[M:4/4] [A,DF]2 [DFA]2 [DFA]2 F-[Fd] | z4 z2 G2 | %8
 x6[K:bass] x2 |[M:3/4] x6 |[M:1/4][K:treble] [G,E]2 |[M:4/4] D2 F2 F2 B[Gd] | .G2 .G2 z4 | x8 | %14
[M:3/4] x6 |[M:1/4] x2 |[M:4/4] z4 z2 .G2 | A2 z2 z4 |[M:9/8] x9 |[M:3/4] x6 |] %20
V:4
 x8 | x8 | C,2 C,2 z2 .C,2 | [E,C]2 C-[E,C] E,D, C,2 |[M:3/4] x6 |[M:1/4] x2 |[M:4/4] z4 z2 G,,2 | %7
 x8 | [F,C]2[K:treble] [F,C]2 z2[K:bass] G,,2 |[M:3/4] x6 |[M:1/4] C,2[K:treble] | %11
[M:4/4][K:bass] x8 | x8 | x8 |[M:3/4] [G,D]6[K:treble] |[M:1/4] G,2 |[M:4/4][K:bass] x8 | %17
 z2 [F,C]2[K:treble] z4 |[M:9/8] z2 B, z3 z3 |[M:3/4][K:bass] x6 |] %20

